Catalina-dark/actions/16/color-select.svg

<?xml version="1.0" encoding="UTF-8" standalone="no"?>
<svg
   xmlns:dc="http://purl.org/dc/elements/1.1/"
   xmlns:cc="http://creativecommons.org/ns#"
   xmlns:rdf="http://www.w3.org/1999/02/22-rdf-syntax-ns#"
   xmlns:svg="http://www.w3.org/2000/svg"
   xmlns="http://www.w3.org/2000/svg"
   xmlns:sodipodi="http://sodipodi.sourceforge.net/DTD/sodipodi-0.dtd"
   xmlns:inkscape="http://www.inkscape.org/namespaces/inkscape"
   width="16"
   height="16"
   viewBox="0 0 16 16"
   version="1.1"
   id="svg7"
   sodipodi:docname="color-select.svg"
   inkscape:version="0.92.4 5da689c313, 2019-01-14">
  <metadata
     id="metadata11">
    <rdf:RDF>
      <cc:Work
         rdf:about="">
        <dc:format>image/svg+xml</dc:format>
        <dc:type
           rdf:resource="http://purl.org/dc/dcmitype/StillImage" />
      </cc:Work>
    </rdf:RDF>
  </metadata>
  <sodipodi:namedview
     pagecolor="#ffffff"
     bordercolor="#666666"
     borderopacity="1"
     objecttolerance="10"
     gridtolerance="10"
     guidetolerance="10"
     inkscape:pageopacity="0"
     inkscape:pageshadow="2"
     inkscape:window-width="715"
     inkscape:window-height="480"
     id="namedview9"
     showgrid="false"
     inkscape:zoom="14.75"
     inkscape:cx="-0.54237288"
     inkscape:cy="8"
     inkscape:window-x="0"
     inkscape:window-y="26"
     inkscape:window-maximized="0"
     inkscape:current-layer="svg7" />
  <defs
     id="defs3">
    <style
       id="current-color-scheme"
       type="text/css">
   .ColorScheme-Text { color:#5c616c; } .ColorScheme-Highlight { color:#5294e2; }
  </style>
  </defs>
  <path
     style="fill:#f1f6f8;fill-opacity:0.8509804"
     class="ColorScheme-Text"
     d="M 13.470703 0.9921875 C 13.081143 1.0034875 12.711243 1.1660525 12.439453 1.4453125 L 10.082031 3.8027344 L 10.078125 3.796875 L 8.140625 1.859375 L 6.7265625 3.2734375 L 8.1660156 4.7128906 L 0.9921875 11.886719 L 0.9921875 15.005859 L 4.1132812 15.005859 L 11.285156 7.8339844 L 12.726562 9.2734375 L 14.140625 7.859375 L 12.203125 5.9238281 L 14.560547 3.5664062 C 15.539917 2.6125863 14.837183 0.9527875 13.470703 0.9921875 z M 9.0039062 5.5429688 L 10.417969 6.9570312 L 3.5292969 13.845703 L 2.1152344 12.431641 L 9.0039062 5.5429688 z"
     id="path5" />
</svg>

<svg width="16" height="16" version="1.1" viewBox="0 0 16 16" xmlns="http://www.w3.org/2000/svg">
<defs>
<style id="current-color-scheme" type="text/css">.ColorScheme-Text { color:#5c616c; } .ColorScheme-Highlight { color:#5294e2; }</style>
</defs>
<path class="ColorScheme-Text" d="m13.471 0.99219c-0.38956 0.0113-0.75946 0.17386-1.0312 0.45312l-2.3574 2.3574-0.003906-0.0058594-1.9375-1.9375-1.4141 1.4141 1.4395 1.4395-7.1738 7.1738v3.1191h3.1211l7.1719-7.1719 1.4414 1.4395 1.4141-1.4141-1.9375-1.9355 2.3574-2.3574c0.97937-0.95382 0.27664-2.6136-1.0898-2.5742zm-4.4668 4.5508 1.4141 1.4141-6.8887 6.8887-1.4141-1.4141 6.8887-6.8887z" fill="#f1f6f8" fill-opacity=".85098"/>
</svg>
